shared/images/iconfont/kb-iconfont-identity-hn-16.svg

<?xml version="1.0" encoding="UTF-8"?>
<svg width="16px" height="16px" viewBox="0 0 16 16" version="1.1" xmlns="http://www.w3.org/2000/svg" xmlns:xlink="http://www.w3.org/1999/xlink">
    <!-- Generator: sketchtool 49.3 (51167) - http://www.bohemiancoding.com/sketch -->
    <title>BEFAA1F2-78CA-40E6-A833-B803FDF24BB8</title>
    <desc>Created with sketchtool.</desc>
    <defs></defs>
    <g id="Colors,-icons" stroke="none" stroke-width="1" fill="none" fill-rule="evenodd">
        <g id="Icons-2" transform="translate(-277.000000, -367.000000)">
            <g id="kb-iconfont-identity-hn-16" transform="translate(277.000000, 367.000000)">
                <rect id="icon-area" fill="#D8D8D8" opacity="0" x="0" y="0" width="16" height="16"></rect>
                <path d="M1,3.00585866 C1,1.89805351 1.89706013,1 3.00585866,1 L12.9941413,1 C14.1019465,1 15,1.89706013 15,3.00585866 L15,12.9941413 C15,14.1019465 14.1029399,15 12.9941413,15 L3.00585866,15 C1.89805351,15 1,14.1029399 1,12.9941413 L1,3.00585866 Z M6.10242354,4.56796902 C6.33835267,4.9515245 6.50741016,5.23196661 6.62537472,5.42308758 C6.72605786,5.61486532 6.87783392,5.88020165 7.04689141,6.19019855 C7.23247897,6.49953867 7.4007851,6.77932401 7.55256116,7.04466034 C7.68780716,7.32510245 7.83958322,7.59043877 7.95754778,7.84066932 L7.99135928,7.84066932 C8.15966541,7.5313292 8.34525297,7.1773285 8.54812197,6.79442979 C8.76676966,6.41087431 8.95235722,6.0864284 9.12141472,5.82109207 C9.27319078,5.55575574 9.49258984,5.20241182 9.76233046,4.75974676 C10.0147897,4.33218748 10.2176586,3.99329256 10.3521533,4.01522569 L11.7692308,4.01522569 L9.02678233,8.6222293 L9.02678233,12 L6.99682601,12 L6.99682601,8.6222293 L4.23076923,4.01522569 L5.64709535,4.01522569 C5.73124842,3.93418298 5.88302448,4.1850703 6.10242354,4.56796902 Z" id="Icon-hackernews" fill="#000000"></path>
            </g>
        </g>
    </g>
</svg>

<svg xmlns="http://www.w3.org/2000/svg" width="16" height="16" viewBox="0 0 16 16">
    <path fill="#000" fill-rule="evenodd" d="M1 3.006C1 1.898 1.897 1 3.006 1h9.988C14.102 1 15 1.897 15 3.006v9.988A2.005 2.005 0 0 1 12.994 15H3.006A2.005 2.005 0 0 1 1 12.994V3.006zm5.102 1.562l.523.855c.101.192.253.457.422.767.185.31.354.59.506.855.135.28.287.545.405.796h.033c.169-.31.354-.664.557-1.047.219-.383.404-.708.573-.973.152-.265.372-.619.641-1.061.253-.428.456-.767.59-.745h1.417L9.027 8.622V12h-2.03V8.622L4.23 4.015h1.416c.084-.08.236.17.455.553z"/>
</svg>
